X: 3259
T: A WELSHMAN FROM WHENCE
%R: jig
B: James Kerr "Merry Melodies" v.3 p.29 #259
Z: 2016 John Chambers <jc:trillian.mit.edu>
M: 6/8
L: 1/8
K: G
|:\
d3 dBd | G2B c2e | d3 dBd | A2B c2e |\
d3 dBd | G2B c2e | gfe dcB | A2B c2e :|
|:\
gbg dBd | gbg dBd | gbg dcB | A2B c2d |\
gbg a2c' | bag fed | gfe dcB | A2B c2e :|

%%sep 1 1 500
%%sep 1 1 500

